X:6374
T:Sweet Colleen Rue
O:england
B:Joyce, P. W.; "Old Irish Folk Music and Songs"
R:song
H:  I learned this air from hearing it often sung at home when I was a child.
H:I find an almost identical setting in Forde's Collection, given to him by
H:Mr. Deasy of Clonakilty Co. Cork.
W:One evening fresh and fair as I roved to take air,
W:   Down by the pleasant water my way I did pursue;
W: Advancing by its side where the stream did gently glide,
W:   'Twas there I first espied my sweet Colleen Rue. as I roved to take air,
L:1/8
M:C
K:G
DE|GAGE c2 dc|A>GED D2 DE|G>AGE c2 d>c|A2 d>d d2 cd|
edce d2 cB|cBAG E2 GA|c>d e/d/c/B/ A>G E/D/C/D/|E D>D D|]


